X:164
T:Kirks Hornpipe GHW.054
T:West End, The GHW.054
R:hp 32
S:George H.Watson,MS,Swanton Abbott,Norfolk,1850-1880 O:England A:Norfolk Z:vmp.Taz Tarry
M:4/4
L:1/8
Q:1/4=180
K:D
|:(AG)|FGAF D2d2|cdec A2f2|gfed B2ed|c2A2 A2AG|
FGAF D2d2|cdec A2f2|gfed cdce|d2d2 d2:|
|:(fg)|afdf a2a2|gece g2g2|fedc d2ed|c2A2 A2fg|
afdf a2a2|gece g2g2|fedc Bdce|d2d2 d2:|]

